!!!ONB: MCCC : IWM0401_02 : Extracted Monophonic Melody
!!!COM: Mozart, Wolfgang Amadeus
!!!OPR: Piano Sonata No.1
!!!OMV: 2
!!!SCT: K.279 ; K⁶.189d
!!!ODT: 1774///
**kern
*thru
*staff1
*>A
*clefG2
*k[b-]
*F:
*M3/4
*MM108
16f
=1
4cc
4cc
4cc
=2
*Xtuplet
4bb-
4b-
8r
8a
=3
12g
12b-
12g
12f
12a
12f
12e
12g
12e
=4
4bb-
4b-
8r
8a
=5
12g
12b-
12g
12f
12a
12f
12e
12g
12e
=6
4f
12r
12e
12f
12g
12f
12b-
=7
12a
12g
12f#
12g
12f#
12g
12a
12g
12cc
=8
12b-
12a
12g#
4a
[4ccc
=9
12ccc]
12ccc#
12ddd
12ccc
12bb-
12aa
12aa
12gg
12ff
=10
12ee
12gg
12gg
12gg
12gg
12gg
12gg
12gg
12gg
=11
2.gg
=12
2.gg
=13
2.gg
=14
12r
12ee
12ff
12ff#
12gg
12gg#
12aa
12bb
12ccc
=15
4dd[
12dd]
12aa
12gg
12ff
12ee
12dd
=16
12gg
12gg#
12aa
4cc
8.b
32a
32b
=17
4cc
4r
4r
=18
12r
12bb
12ccc
12r
12ccc
12bb
12r
12gg#
12aa
=19
12r
12aa
12gg
12r
12gg
12ff
12r
12ff
12ee
=20
4a
4g
4f
=21
16aa
8.gg
16gg
8.ff
16ff
8.ee
=22
12ee
12dd
12r
4r
4r
=23
12dd
12ee-
12r
4r
4r
=24
12dd#
12ee
12r
4r
12ff#
12gg
12r
=25
4r
4.dd
16cc
16dd
=26
12cc
12ee
12gg
8.gg
32ff#
32gg
12r
12ff
12dd
=27
12cc
12ee
12g
8.g
32f#
32g
12r
12f
12d
=28
2d
8c
16r
*>A
*M3/4
16f
=29
4cc
4cc
4cc
=30
*Xtuplet
4bb-
4b-
8r
8a
=31
12g
12b-
12g
12f
12a
12f
12e
12g
12e
=32
4bb-
4b-
8r
8a
=33
12g
12b-
12g
12f
12a
12f
12e
12g
12e
=34
4f
12r
12e
12f
12g
12f
12b-
=35
12a
12g
12f#
12g
12f#
12g
12a
12g
12cc
=36
12b-
12a
12g#
4a
[4ccc
=37
12ccc]
12ccc#
12ddd
12ccc
12bb-
12aa
12aa
12gg
12ff
=38
12ee
12gg
12gg
12gg
12gg
12gg
12gg
12gg
12gg
=39
2.gg
=40
2.gg
=41
2.gg
=42
12r
12ee
12ff
12ff#
12gg
12gg#
12aa
12bb
12ccc
=43
4dd[
12dd]
12aa
12gg
12ff
12ee
12dd
=44
12gg
12gg#
12aa
4cc
8.b
32a
32b
=45
4cc
4r
4r
=46
12r
12bb
12ccc
12r
12ccc
12bb
12r
12gg#
12aa
=47
12r
12aa
12gg
12r
12gg
12ff
12r
12ff
12ee
=48
4a
4g
4f
=49
16aa
8.gg
16gg
8.ff
16ff
8.ee
=50
12ee
12dd
12r
4r
4r
=51
12dd
12ee-
12r
4r
4r
=52
12dd#
12ee
12r
4r
12ff#
12gg
12r
=53
4r
4.dd
16cc
16dd
=54
12cc
12ee
12gg
8.gg
32ff#
32gg
12r
12ff
12dd
=55
12cc
12ee
12g
8.g
32f#
32g
12r
12f
12d
=56
2d
8c
16r
*>B
16cc
=57
4gg
4gg
4gg
=58
8.ff#
32gg
32aa
4gg
8r
16r
16gg
=59
[4gg
12gg]
12bb-
12aa
12gg
12ff
12ee
=60
4dd
4cc#
8r
16r
16a
=61
4bb-
4aa
8r
8ff
=62
12ee
12gg
12ee
12dd
12ff
12dd
12cc#
12ee
12cc#
=63
4ccc#
4ddd
8r
16r
16ff
=64
12ee
12gg
12ee
12dd
12ff
12dd
12cc#
12ee
12cc#
=65
4cc
4.ee-
16dd
16ee-
=66
*tuplet
4dd
12r
12gg
12ff#
4gg
=67
12r
12bb-
12aa
*Xtuplet
4bb-
12r
12ddd
12ccc#
=68
12ddd
12bb-
12gg
12ddd
12bb-
12gg
12ddd
12bb-
12gg
=69
4ff[
12ff]
12ee
12ff
12gg
12aa
12bb-
=70
16bb
16ccc
16ddd
16ccc
16ccc
16bb-
16aa
16gg
16gg
16ff
16ee
16dd
=71
4cc
4cc
4cc
=72
4bb-
4b-
8r
8a
=73
12g
12b-
12g
12f
12a
12f
12e
12g
12e
=74
4bb-
4b-
8r
16r
16b-
=75
4bb-
4b-
8r
8a
=76
12a
12g
12r
4r
4r
=77
12ff
12b
12r
4r
4r
=78
12cc
12ccc
12ccc
12ccc
12ccc
12ccc
12ccc
12ccc
12ccc
=79
2.ccc
=80
2.ccc
=81
2.ccc
=82
12r
12a
12b-
12b
12cc
12cc#
12dd
12ee
12ff
=83
4g[
12g]
12dd
12cc
12b-
12a
12g
=84
12cc
12cc#
12dd
4f
8.e
32d
32e
=85
4f
4r
4r
=86
12r
12ee
12ff
12r
12ff
12ee
12r
12cc#
12dd
=87
12r
12dd
12cc
12r
12ccc
12bb-
12r
12bb-
12aa
=88
4dd
4cc
4b-
=89
4ccc
4bb-
4aa
=90
4d
4c
4B-
=91
16dd
8.cc
16cc
8.b-
16b-
8.a
=92
*tuplet
12a
12g
12r
4r
4r
=93
12g
12a-
12r
4r
4r
=94
*Xtuplet
12g#
12a
12r
4r
12bb
12ccc
12r
=95
4r
4.gg
16ff
16gg
=96
4ff
12r
12e
12f
12g
12f
12b-
=97
12a
12g
12f#
12g
12f#
12g
12a
12g
12cc
=98
12b-
12a
12g#
4a
[4ccc
=99
12ccc]
12bb-
12aa[
12aa]
12gg
12ff[
12ff]
12gg
12ee
=100
12ff
12aa
12ccc
8.ccc
32bb
32ccc
12r
12bb-
12gg
=101
12ff
12aa
12cc
8.cc
32b
32cc
12r
12b-
12g
=102
2g
8f
16r
*>B
16cc
=103
4gg
4gg
4gg
=104
8.ff#
32gg
32aa
4gg
8r
16r
16gg
=105
[4gg
12gg]
12bb-
12aa
12gg
12ff
12ee
=106
4dd
4cc#
8r
16r
16a
=107
4bb-
4aa
8r
8ff
=108
12ee
12gg
12ee
12dd
12ff
12dd
12cc#
12ee
12cc#
=109
4ccc#
4ddd
8r
16r
16ff
=110
12ee
12gg
12ee
12dd
12ff
12dd
12cc#
12ee
12cc#
=111
4cc
4.ee-
16dd
16ee-
=112
*tuplet
4dd
12r
12gg
12ff#
4gg
=113
12r
12bb-
12aa
*Xtuplet
4bb-
12r
12ddd
12ccc#
=114
12ddd
12bb-
12gg
12ddd
12bb-
12gg
12ddd
12bb-
12gg
=115
4ff[
12ff]
12ee
12ff
12gg
12aa
12bb-
=116
16bb
16ccc
16ddd
16ccc
16ccc
16bb-
16aa
16gg
16gg
16ff
16ee
16dd
=117
4cc
4cc
4cc
=118
4bb-
4b-
8r
8a
=119
12g
12b-
12g
12f
12a
12f
12e
12g
12e
=120
4bb-
4b-
8r
16r
16b-
=121
4bb-
4b-
8r
8a
=122
12a
12g
12r
4r
4r
=123
12ff
12b
12r
4r
4r
=124
12cc
12ccc
12ccc
12ccc
12ccc
12ccc
12ccc
12ccc
12ccc
=125
2.ccc
=126
2.ccc
=127
2.ccc
=128
12r
12a
12b-
12b
12cc
12cc#
12dd
12ee
12ff
=129
4g[
12g]
12dd
12cc
12b-
12a
12g
=130
12cc
12cc#
12dd
4f
8.e
32d
32e
=131
4f
4r
4r
=132
12r
12ee
12ff
12r
12ff
12ee
12r
12cc#
12dd
=133
12r
12dd
12cc
12r
12ccc
12bb-
12r
12bb-
12aa
=134
4dd
4cc
4b-
=135
4ccc
4bb-
4aa
=136
4d
4c
4B-
=137
16dd
8.cc
16cc
8.b-
16b-
8.a
=138
*tuplet
12a
12g
12r
4r
4r
=139
12g
12a-
12r
4r
4r
=140
*Xtuplet
12g#
12a
12r
4r
12bb
12ccc
12r
=141
4r
4.gg
16ff
16gg
=142
4ff
12r
12e
12f
12g
12f
12b-
=143
12a
12g
12f#
12g
12f#
12g
12a
12g
12cc
=144
12b-
12a
12g#
4a
[4ccc
=145
12ccc]
12bb-
12aa[
12aa]
12gg
12ff[
12ff]
12gg
12ee
=146
12ff
12aa
12ccc
8.ccc
32bb
32ccc
12r
12bb-
12gg
=147
12ff
12aa
12cc
8.cc
32b
32cc
12r
12b-
12g
=148
2g
8f
16r
==
*-
